X:563
T:Fight About The Fireside
C:Joe Buchanan's Scottish Tome - Page 148.2
I:148 2
Z:Carl Allison
R:Reel
L:1/8
M:C
K:C
|: "Em"E2 EF "A7"E2 EF | "D"D/E/F/G/ "D"A/F/D/E/ | "Em"E2 EF "Em"E2 EF | "B7"e/f/e/^d/ e2  B2 :|
"Em"e2 ef "A7"g2 fe | "D"d/e/f/g/ "D"a/f/d/f/ | "Em"e2 ef "C"g2 fe | "B7"e/f/e/^d/ "Em"e2 eB |
"Em"e2 ef "A7"g2 fe | "D"d/e/f//g "D"a/f/d/f/ | "G"g2 bg "D"f2 af | "B7"e/f/e/^d/ "Em"e3 e |]
